X: 7709
T: Colliers', The
R: reel
M: 4/4
K: Dmixolydian
A3G|ED (3EFG A3 B|cAdB cAGc|Ad{e}dA {e}d3e|fded {e}d^cAG|
AD (3EFG A3 B|c2Bd cAGc|Ad{e}d^c A2 {B}AG|E2cE {G}ED {E}D {E}D||
DD (3EFG A3 d|cA {B}A{^G}A BGFG|Ad{e}dA {e}d2ag|fded {e}d^cAG|
AD (3EFG A2 AB|(3cec Bd cAGc|Ad{e}d^c (3ABA {B}AG|E2cE {G}ED {E}D {E}D||
ffeg fde^c|Ad{e}d^c Ad{e}dg|fded {e}d^cAG|(3ABc cB cccd|
ea{b}ag efge|fded {e}d^cAG|Ad{e}d^c (3ABA {B}AG|E2 cE {G}ED {E}D2||
ffeg fde^c|Ad{e}d^c Ad{e}dg|fded {e}d^cAD|(3EFG AB cd (3efg|
a2{b}af g2{b}ge|=f2fd cAGc|Ad{e}d^c (3ABA {B}AG|E2 cE {G}ED {E}D2||
AD (3EFG A3 B|ccBd cB/A/ Gc|Ad{e}dA {e}d3e|fded {e}d^cAG|
AD (3EFG A3 B|ccBd cAGc|Ad{e}d^c A2 {B}AG|E2cE DEFG||
AD (3EFG A3 B|Bc cB (3cBc Bc|Ad{e}dA {e}d3 e|fded {e}d^cAG|
AD (3EFG A2 AB|(3cec Bd cAGc|Ad{e}d^c (3ABA {B}AG|E2cE {G}ED =FD||
ffeg fde^c|Ad{e}d^c Ad{e}dg|fded {e}d^cAG|(3ABc cB cccd|
ea{b}ag efge|fded {e}d^cAG|Ad{e}d^c (3ABA {B}AG|E2 cE {G}ED {E}D2||
ffeg fde^c|Ad{e}d^c Ad{e}dg|fded {e}d^cAD|(3EFG AB cd (3efg|
a2{b}af g2{b}ge|=ffed cAGc|Ad{e}d^c (3ABA {B}AG|E2 cE DEFA||

